images/indikatorenset/4131.svg

<?xml version="1.0" standalone="no"?><!DOCTYPE svg PUBLIC "-//W3C//DTD SVG 1.1//EN" "http://www.w3.org/Graphics/SVG/1.1/DTD/svg11.dtd"><svg xmlns:xlink="http://www.w3.org/1999/xlink" version="1.1" class="highcharts-root" style="font-family:Arial;font-size:12px;" xmlns="http://www.w3.org/2000/svg" viewBox="0 0 485 415"><desc>Created with Highstock 5.0.7</desc><defs><clipPath id="highcharts-xfnlcrq-1"><rect x="0" y="0" width="210" height="275" fill="none"></rect></clipPath><clipPath id="highcharts-xfnlcrq-2"><rect x="0" y="0" width="210" height="275" fill="none"></rect></clipPath></defs><rect fill="#fbfbfb" class="highcharts-background" x="0" y="0" width="485" height="415" rx="0" ry="0"></rect><rect fill="none" class="highcharts-plot-background" x="53" y="75" width="210" height="275"></rect><g class="highcharts-grid highcharts-xaxis-grid "><path fill="none" class="highcharts-grid-line" d="M 88.5 75 L 88.5 350" opacity="1"></path><path fill="none" class="highcharts-grid-line" d="M 157.5 75 L 157.5 350" opacity="1"></path><path fill="none" class="highcharts-grid-line" d="M 226.5 75 L 226.5 350" opacity="1"></path></g><g class="highcharts-grid highcharts-yaxis-grid "><path fill="none" stroke="#e6e6e6" stroke-width="1" class="highcharts-grid-line" d="M 53 350.5 L 263 350.5" opacity="1"></path><path fill="none" stroke="#e6e6e6" stroke-width="1" class="highcharts-grid-line" d="M 53 281.5 L 263 281.5" opacity="1"></path><path fill="none" stroke="#e6e6e6" stroke-width="1" class="highcharts-grid-line" d="M 53 213.5 L 263 213.5" opacity="1"></path><path fill="none" stroke="#e6e6e6" stroke-width="1" class="highcharts-grid-line" d="M 53 144.5 L 263 144.5" opacity="1"></path><path fill="none" stroke="#e6e6e6" stroke-width="1" class="highcharts-grid-line" d="M 53 74.5 L 263 74.5" opacity="1"></path></g><rect fill="none" class="highcharts-plot-border" x="53" y="75" width="210" height="275"></rect><g class="highcharts-axis highcharts-xaxis "><path fill="none" class="highcharts-tick" stroke="#FFFFFF" stroke-width="1" d="M 88.5 350 L 88.5 360" opacity="1"></path><path fill="none" class="highcharts-tick" stroke="#FFFFFF" stroke-width="1" d="M 157.5 350 L 157.5 360" opacity="1"></path><path fill="none" class="highcharts-tick" stroke="#FFFFFF" stroke-width="1" d="M 226.5 350 L 226.5 360" opacity="1"></path><path fill="none" class="highcharts-axis-line" stroke="#ccd6eb" stroke-width="1" d="M 53 350.5 L 263 350.5"></path></g><g class="highcharts-axis highcharts-yaxis "><path fill="none" class="highcharts-axis-line" d="M 53 75 L 53 350"></path></g><g class="highcharts-series-group"><g class="highcharts-series highcharts-series-0 highcharts-column-series highcharts-color-undefined highcharts-tracker" transform="translate(53,75) scale(1 1)" clip-path="url(#highcharts-xfnlcrq-2)"><rect x="18.5" y="-0.5" width="34" height="3" fill="#662673" class="highcharts-point" stroke="#ffffff" stroke-width="1"></rect><rect x="87.5" y="-0.5" width="34" height="3" fill="#662673" class="highcharts-point" stroke="#ffffff" stroke-width="1"></rect><rect x="156.5" y="-0.5" width="34" height="3" fill="#662673" class="highcharts-point" stroke="#ffffff" stroke-width="1"></rect></g><g class="highcharts-markers highcharts-series-0 highcharts-column-series highcharts-color-undefined " transform="translate(53,75) scale(1 1)" clip-path="none"></g><g class="highcharts-series highcharts-series-1 highcharts-column-series highcharts-color-undefined highcharts-tracker" transform="translate(53,75) scale(1 1)" clip-path="url(#highcharts-xfnlcrq-2)"><rect x="18.5" y="2.5" width="34" height="41" fill="#73B97C" class="highcharts-point" stroke="#ffffff" stroke-width="1"></rect><rect x="87.5" y="2.5" width="34" height="42" fill="#73B97C" class="highcharts-point" stroke="#ffffff" stroke-width="1"></rect><rect x="156.5" y="2.5" width="34" height="41" fill="#73B97C" class="highcharts-point" stroke="#ffffff" stroke-width="1"></rect></g><g class="highcharts-markers highcharts-series-1 highcharts-column-series highcharts-color-undefined " transform="translate(53,75) scale(1 1)" clip-path="none"></g><g class="highcharts-series highcharts-series-2 highcharts-column-series highcharts-color-undefined highcharts-tracker" transform="translate(53,75) scale(1 1)" clip-path="url(#highcharts-xfnlcrq-2)"><rect x="18.5" y="43.5" width="34" height="28" fill="#008AC3" class="highcharts-point" stroke="#ffffff" stroke-width="1"></rect><rect x="87.5" y="44.5" width="34" height="27" fill="#008AC3" class="highcharts-point" stroke="#ffffff" stroke-width="1"></rect><rect x="156.5" y="43.5" width="34" height="28" fill="#008AC3" class="highcharts-point" stroke="#ffffff" stroke-width="1"></rect></g><g class="highcharts-markers highcharts-series-2 highcharts-column-series highcharts-color-undefined " transform="translate(53,75) scale(1 1)" clip-path="none"></g><g class="highcharts-series highcharts-series-3 highcharts-column-series highcharts-color-undefined highcharts-tracker" transform="translate(53,75) scale(1 1)" clip-path="url(#highcharts-xfnlcrq-2)"><rect x="18.5" y="71.5" width="34" height="204" fill="#CD9C00" class="highcharts-point" stroke="#ffffff" stroke-width="1"></rect><rect x="87.5" y="71.5" width="34" height="204" fill="#CD9C00" class="highcharts-point" stroke="#ffffff" stroke-width="1"></rect><rect x="156.5" y="71.5" width="34" height="204" fill="#CD9C00" class="highcharts-point" stroke="#ffffff" stroke-width="1"></rect></g><g class="highcharts-markers highcharts-series-3 highcharts-column-series highcharts-color-undefined " transform="translate(53,75) scale(1 1)" clip-path="none"></g></g><text x="10" text-anchor="start" class="highcharts-title" style="color:#000000;font-size:14px;font-weight:bold;fill:#000000;" y="21"><tspan>Wohnungsbelegung nach Belegungsart</tspan></text><g class="highcharts-legend" transform="translate(275,154)"><rect fill="none" class="highcharts-legend-box" rx="0" ry="0" x="0" y="0" width="199" height="87" visibility="visible"></rect><g><g><g class="highcharts-legend-item highcharts-column-series highcharts-color-undefined highcharts-series-0" transform="translate(8,3)"><text x="21" style="color:#333333;font-size:12px;font-weight:normal;cursor:pointer;fill:#333333;" text-anchor="start" y="15"><tspan>sonstige Wohnungen</tspan></text><rect x="2" y="4" width="12" height="12" fill="#662673" class="highcharts-point"></rect></g><g class="highcharts-legend-item highcharts-column-series highcharts-color-undefined highcharts-series-1" transform="translate(8,22)"><text x="21" y="15" style="color:#333333;font-size:12px;font-weight:normal;cursor:pointer;fill:#333333;" text-anchor="start"><tspan>selbstgenutzte Eigentumswhg.</tspan></text><rect x="2" y="4" width="12" height="12" fill="#73B97C" class="highcharts-point"></rect></g><g class="highcharts-legend-item highcharts-column-series highcharts-color-undefined highcharts-series-2" transform="translate(8,41)"><text x="21" y="15" style="color:#333333;font-size:12px;font-weight:normal;cursor:pointer;fill:#333333;" text-anchor="start">Genossenschaftswhg.</text><rect x="2" y="4" width="12" height="12" fill="#008AC3" class="highcharts-point"></rect></g><g class="highcharts-legend-item highcharts-column-series highcharts-color-undefined highcharts-series-3" transform="translate(8,60)"><text x="21" y="15" style="color:#333333;font-size:12px;font-weight:normal;cursor:pointer;fill:#333333;" text-anchor="start">Mietwohnungen</text><rect x="2" y="4" width="12" height="12" fill="#CD9C00" class="highcharts-point"></rect></g></g></g></g><g class="highcharts-axis-labels highcharts-xaxis-labels "><text x="88.92105263157812" style="color:#000000;cursor:default;font-size:11px;fill:#000000;" text-anchor="middle" transform="translate(0,0)" y="369" opacity="1"><tspan>2013</tspan></text><text x="158" style="color:#000000;cursor:default;font-size:11px;fill:#000000;" text-anchor="middle" transform="translate(0,0)" y="369" opacity="1"><tspan>2014</tspan></text><text x="227.0789473684219" style="color:#000000;cursor:default;font-size:11px;fill:#000000;" text-anchor="middle" transform="translate(0,0)" y="369" opacity="1"><tspan>2015</tspan></text></g><g class="highcharts-axis-labels highcharts-yaxis-labels "><text x="38" style="color:#000000;cursor:default;font-size:11px;fill:#000000;" text-anchor="end" transform="translate(0,0)" y="355" opacity="1"><tspan>0%</tspan></text><text x="38" style="color:#000000;cursor:default;font-size:11px;fill:#000000;" text-anchor="end" transform="translate(0,0)" y="286" opacity="1"><tspan>25%</tspan></text><text x="38" style="color:#000000;cursor:default;font-size:11px;fill:#000000;" text-anchor="end" transform="translate(0,0)" y="217" opacity="1"><tspan>50%</tspan></text><text x="38" style="color:#000000;cursor:default;font-size:11px;fill:#000000;" text-anchor="end" transform="translate(0,0)" y="148" opacity="1"><tspan>75%</tspan></text><text x="38" style="color:#000000;cursor:default;font-size:11px;fill:#000000;" text-anchor="end" transform="translate(0,0)" y="80" opacity="1"><tspan>100%</tspan></text></g><text x="10" class="highcharts-credits" text-anchor="start" style="cursor:default;color:#000000;font-size:10px;fill:#000000;" y="400"><tspan>Quelle: Statistisches Amt Basel-Stadt, kantonale Gebäude- und Wohnungsstatistik</tspan></text></svg>

<svg class="highcharts-root" xmlns="http://www.w3.org/2000/svg" viewBox="0 0 485 415" font-family="Arial" font-size="12">
    <defs>
        <clipPath id="a">
            <path fill="none" d="M0 0h210v275H0z"/>
        </clipPath>
    </defs>
    <rect fill="#fbfbfb" class="highcharts-background" width="485" height="415" rx="0" ry="0"/>
    <path fill="none" class="highcharts-plot-background" d="M53 75h210v275H53z"/>
    <g class="highcharts-grid highcharts-xaxis-grid">
        <path fill="none" class="highcharts-grid-line" d="M88.5 75v275m69-275v275m69-275v275"/>
    </g>
    <g class="highcharts-grid highcharts-yaxis-grid">
        <path fill="none" stroke="#e6e6e6" class="highcharts-grid-line" d="M53 350.5h210m-210-69h210m-210-68h210m-210-69h210m-210-70h210"/>
    </g>
    <path fill="none" class="highcharts-plot-border" d="M53 75h210v275H53z"/>
    <g class="highcharts-axis highcharts-xaxis">
        <path fill="none" class="highcharts-tick" stroke="#FFF" d="M88.5 350v10m69-10v10m69-10v10"/>
        <path fill="none" class="highcharts-axis-line" stroke="#ccd6eb" d="M53 350.5h210"/>
    </g>
    <g class="highcharts-axis highcharts-yaxis">
        <path fill="none" class="highcharts-axis-line" d="M53 75v275"/>
    </g>
    <g class="highcharts-series-group">
        <g class="highcharts-series highcharts-series-0 highcharts-column-series highcharts-color-undefined highcharts-tracker" transform="translate(53 75)" clip-path="url(#a)">
            <path fill="#662673" class="highcharts-point" stroke="#fff" d="M18.5-.5h34v3h-34zm69 0h34v3h-34zm69 0h34v3h-34z"/>
        </g>
        <g class="highcharts-series highcharts-series-1 highcharts-column-series highcharts-color-undefined highcharts-tracker" transform="translate(53 75)" clip-path="url(#a)">
            <path fill="#73B97C" class="highcharts-point" stroke="#fff" d="M18.5 2.5h34v41h-34zm69 0h34v42h-34zm69 0h34v41h-34z"/>
        </g>
        <g class="highcharts-series highcharts-series-2 highcharts-column-series highcharts-color-undefined highcharts-tracker" transform="translate(53 75)" clip-path="url(#a)">
            <path fill="#008AC3" class="highcharts-point" stroke="#fff" d="M18.5 43.5h34v28h-34zm69 1h34v27h-34zm69-1h34v28h-34z"/>
        </g>
        <g class="highcharts-series highcharts-series-3 highcharts-column-series highcharts-color-undefined highcharts-tracker" transform="translate(53 75)" clip-path="url(#a)">
            <path fill="#CD9C00" class="highcharts-point" stroke="#fff" d="M18.5 71.5h34v204h-34zm69 0h34v204h-34zm69 0h34v204h-34z"/>
        </g>
    </g>
    <text x="10" class="highcharts-title" y="21" color="#000" font-size="14" font-weight="700">
        <tspan>Wohnungsbelegung nach Belegungsart</tspan>
    </text>
    <g class="highcharts-legend" transform="translate(275 154)">
        <rect fill="none" class="highcharts-legend-box" rx="0" ry="0" width="199" height="87"/>
        <g class="highcharts-legend-item highcharts-column-series highcharts-color-undefined highcharts-series-0">
            <text x="21" y="15" color="#333" font-weight="400" cursor="pointer" fill="#333" transform="translate(8 3)">
                <tspan>sonstige Wohnungen</tspan>
            </text>
            <path fill="#662673" class="highcharts-point" d="M10 7h12v12H10z"/>
        </g>
        <g class="highcharts-legend-item highcharts-column-series highcharts-color-undefined highcharts-series-1">
            <text x="21" y="15" color="#333" font-weight="400" cursor="pointer" fill="#333" transform="translate(8 22)">
                <tspan>selbstgenutzte Eigentumswhg.</tspan>
            </text>
            <path fill="#73B97C" class="highcharts-point" d="M10 26h12v12H10z"/>
        </g>
        <g class="highcharts-legend-item highcharts-column-series highcharts-color-undefined highcharts-series-2">
            <text x="21" y="15" color="#333" font-weight="400" cursor="pointer" fill="#333" transform="translate(8 41)">
                Genossenschaftswhg.
            </text>
            <path fill="#008AC3" class="highcharts-point" d="M10 45h12v12H10z"/>
        </g>
        <g class="highcharts-legend-item highcharts-column-series highcharts-color-undefined highcharts-series-3">
            <text x="21" y="15" color="#333" font-weight="400" cursor="pointer" fill="#333" transform="translate(8 60)">
                Mietwohnungen
            </text>
            <path fill="#CD9C00" class="highcharts-point" d="M10 64h12v12H10z"/>
        </g>
    </g>
    <g class="highcharts-axis-labels highcharts-xaxis-labels" text-anchor="middle" color="#000" cursor="default" font-size="11">
        <text x="88.921" y="369">
            <tspan>2013</tspan>
        </text>
        <text x="158" y="369">
            <tspan>2014</tspan>
        </text>
        <text x="227.079" y="369">
            <tspan>2015</tspan>
        </text>
    </g>
    <g class="highcharts-axis-labels highcharts-yaxis-labels" text-anchor="end" color="#000" cursor="default" font-size="11">
        <text x="38" y="355">
            <tspan>0%</tspan>
        </text>
        <text x="38" y="286">
            <tspan>25%</tspan>
        </text>
        <text x="38" y="217">
            <tspan>50%</tspan>
        </text>
        <text x="38" y="148">
            <tspan>75%</tspan>
        </text>
        <text x="38" y="80">
            <tspan>100%</tspan>
        </text>
    </g>
    <text x="10" class="highcharts-credits" y="400" cursor="default" color="#000" font-size="10">
        <tspan>Quelle: Statistisches Amt Basel-Stadt, kantonale Gebäude- und Wohnungsstatistik</tspan>
    </text>
</svg>
